packages/assets/static/images/icons/carrot.svg

<svg width="24" height="24" viewBox="0 0 24 24" xmlns="http://www.w3.org/2000/svg">
<path d="M21.3697 6.37988H18.6801L21.1504 3.91051C21.2201 3.84083 21.2753 3.7581 21.313 3.66706C21.3507 3.57601 21.3702 3.47843 21.3702 3.37988C21.3702 3.28134 21.3507 3.18376 21.313 3.09271C21.2753 3.00167 21.2201 2.91894 21.1504 2.84926C21.0807 2.77958 20.998 2.7243 20.9069 2.68659C20.8159 2.64888 20.7183 2.62947 20.6197 2.62947C20.5212 2.62947 20.4236 2.64888 20.3326 2.68659C20.2415 2.7243 20.1588 2.77958 20.0891 2.84926L17.6197 5.31957V2.62988C17.6197 2.43097 17.5407 2.2402 17.4001 2.09955C17.2594 1.9589 17.0687 1.87988 16.8697 1.87988C16.6708 1.87988 16.4801 1.9589 16.3394 2.09955C16.1988 2.2402 16.1197 2.43097 16.1197 2.62988V5.68332C14.9769 5.02359 13.6485 4.75899 12.3401 4.93051C11.0317 5.10202 9.8164 5.70007 8.88224 6.63207C5.12287 10.3249 2.29631 19.1083 2.02068 19.9868C1.89073 20.2657 1.84972 20.5779 1.90321 20.8809C1.9567 21.184 2.10211 21.4632 2.31971 21.6809C2.53731 21.8985 2.81658 22.0439 3.11963 22.0974C3.42268 22.1508 3.73485 22.1098 4.0138 21.9799C4.89224 21.7043 13.6869 18.8739 17.3704 15.1164C18.3017 14.182 18.8991 12.9667 19.0701 11.6585C19.2411 10.3504 18.9762 9.0223 18.3163 7.87988H21.3697C21.5687 7.87988 21.7594 7.80087 21.9001 7.66021C22.0407 7.51956 22.1197 7.32879 22.1197 7.12988C22.1197 6.93097 22.0407 6.74021 21.9001 6.59955C21.7594 6.4589 21.5687 6.37988 21.3697 6.37988ZM16.296 14.0674C15.4579 14.9224 14.3038 15.7361 13.0288 16.4796L10.6494 14.0993C10.5797 14.0296 10.497 13.9743 10.406 13.9366C10.3149 13.8989 10.2174 13.8795 10.1188 13.8795C10.0203 13.8795 9.92268 13.8989 9.83163 13.9366C9.74059 13.9743 9.65786 14.0296 9.58818 14.0993C9.5185 14.1689 9.46322 14.2517 9.42551 14.3427C9.3878 14.4338 9.36839 14.5313 9.36839 14.6299C9.36839 14.7284 9.3878 14.826 9.42551 14.9171C9.46322 15.0081 9.5185 15.0908 9.58818 15.1605L11.6591 17.2314C7.82756 19.218 3.56662 20.5521 3.50287 20.5718C3.4567 20.5867 3.41211 20.6062 3.36974 20.6299C3.39239 20.5877 3.41092 20.5434 3.42506 20.4977C3.45224 20.4105 6.05006 12.0996 9.42506 8.24738L12.591 11.4133C12.7317 11.5541 12.9226 11.6331 13.1216 11.6331C13.3206 11.6331 13.5115 11.5541 13.6522 11.4133C13.793 11.2726 13.872 11.0817 13.872 10.8827C13.872 10.6837 13.793 10.4928 13.6522 10.3521L10.5116 7.21238C11.4318 6.5577 12.5644 6.27291 13.6848 6.41455C14.8052 6.55618 15.8313 7.11388 16.5596 7.97696C17.2879 8.84003 17.665 9.94538 17.6162 11.0736C17.5674 12.2018 17.0961 13.2705 16.296 14.0674Z"/>
</svg>

<svg viewBox="0 0 24 24" xmlns="http://www.w3.org/2000/svg" aria-hidden="true" fill="currentColor"><path d="M21.37 6.38h-2.69l2.47-2.47a.75.75 0 0 0-1.06-1.06l-2.47 2.47V2.63a.75.75 0 1 0-1.5 0v3.053a6 6 0 0 0-7.238.95c-3.76 3.692-6.586 12.475-6.861 13.354a1.5 1.5 0 0 0 1.993 1.993c.878-.276 9.673-3.106 13.356-6.864a6 6 0 0 0 .946-7.236h3.054a.75.75 0 1 0 0-1.5m-5.074 7.687c-.838.855-1.992 1.67-3.267 2.413l-2.38-2.38a.75.75 0 1 0-1.06 1.06l2.07 2.071c-3.831 1.987-8.092 3.321-8.156 3.34a1 1 0 0 0-.133.059 1 1 0 0 0 .055-.132c.027-.088 2.625-8.398 6-12.25l3.166 3.165a.75.75 0 1 0 1.061-1.06l-3.14-3.14a4.5 4.5 0 0 1 5.784 6.854"/></svg>
